packages/ui-icons/svg/Solid/note-dark.svg

<svg viewBox="0 0 1920 1920" version="1.1" xmlns="http://www.w3.org/2000/svg">
    <path d="M1129.41176,1242.35294 L1129.41176,1355.29412 L338.823529,1355.29412 L338.823529,1242.35294 L1129.41176,1242.35294 Z M1581.17647,903.529412 L1581.17647,1016.47059 L338.823529,1016.47059 L338.823529,903.529412 L1581.17647,903.529412 Z M621.176471,0 C714.578824,0 790.588235,76.0094118 790.588235,169.411765 C790.588235,195.501176 784.150588,219.896471 773.647059,242.032941 L999.981176,468.254118 L920.018824,548.216471 L693.797647,321.882353 C671.661176,332.385882 647.152941,338.823529 621.176471,338.823529 C527.774118,338.823529 451.764706,262.814118 451.764706,169.411765 C451.764706,76.0094118 527.774118,0 621.176471,0 Z M344.470588,225.882353 C370.447059,354.635294 484.517647,451.764706 621.176471,451.764706 C634.729412,451.764706 648.282353,450.635294 660.705882,448.376471 L660.705882,448.376471 L920.470588,708.141176 L1159.90588,468.705882 L917.082353,225.882353 L1920,225.882353 L1920,1355.29412 L1355.29412,1355.29412 L1355.29412,1920 L5.68434189e-14,1920 L5.68434189e-14,225.882353 Z M1912.65882,1468.24659 L1468.23529,1912.55718 L1468.23529,1468.24659 L1912.65882,1468.24659 Z" stroke="none" stroke-width="1" fill-rule="evenodd"/>
</svg>

<svg viewBox="0 0 1920 1920" xmlns="http://www.w3.org/2000/svg">
    <path d="M1129.412 1242.353v112.941H338.824v-112.941h790.588Zm451.764-338.824v112.942H338.824V903.529h1242.352ZM621.176 0c93.403 0 169.412 76.01 169.412 169.412 0 26.09-6.437 50.484-16.94 72.62L999.98 468.255l-79.962 79.962-226.221-226.334c-22.137 10.504-46.645 16.942-72.622 16.942-93.402 0-169.411-76.01-169.411-169.412C451.765 76.009 527.775 0 621.176 0ZM344.471 225.882c25.976 128.753 140.047 225.883 276.705 225.883 13.553 0 27.106-1.13 39.53-3.389L920.47 708.141l239.435-239.435-242.824-242.824H1920v1129.412h-564.706V1920H0V225.882Zm1568.188 1242.365-444.424 444.31v-444.31h444.424Z" fill-rule="evenodd"/>
</svg>
